X:43
T:Reel de Valleyfield
R:reel
M:4/4
L:1/8
K:D
DFAF DFAF | EGAG EGAG | DFAF DFAd | fedf e2AF |
DFAF DFAF | EGAG EGAG | DFAF DFAd |1 fedc d2AF :|2 feBc d2fd |:
Adfd Adfa | gfed e2B2 | ABcd edeg | fdec d2fd |
Adfd Adfa | gfed e2B2 | ABcd efeg | fedc d2fd :|
